icons/lines/layer.svg

<svg xmlns="http://www.w3.org/2000/svg" width="24" height="24" viewBox="0 0 24 24" fill="none" stroke="currentColor" stroke-width="2" stroke-linecap="round" stroke-linejoin="round" >
  <path d="M13.01 2.92001L18.91 5.54001C20.61 6.29001 20.61 7.53001 18.91 8.28001L13.01 10.9C12.34 11.2 11.24 11.2 10.57 10.9L4.67002 8.28001C2.97002 7.53001 2.97002 6.29001 4.67002 5.54001L10.57 2.92001C11.24 2.62001 12.34 2.62001 13.01 2.92001Z"/>
  <path d="M3 11C3 11.84 3.63 12.81 4.4 13.15L11.19 16.17C11.71 16.4 12.3 16.4 12.81 16.17L19.6 13.15C20.37 12.81 21 11.84 21 11"/>
  <path d="M3 16C3 16.93 3.55 17.77 4.4 18.15L11.19 21.17C11.71 21.4 12.3 21.4 12.81 21.17L19.6 18.15C20.45 17.77 21 16.93 21 16"/>
  </svg>

<svg xmlns="http://www.w3.org/2000/svg" width="24" height="24" viewBox="0 0 24 24" fill="none" stroke="currentColor" stroke-width="2" stroke-linecap="round" stroke-linejoin="round">
  <path d="M18.91 5.54c1.7.75 1.7 1.99 0 2.74l-5.9 2.62c-.67.3-1.77.3-2.44 0l-5.9-2.62c-1.7-.75-1.7-1.99 0-2.74l5.9-2.62c.67-.3 1.77-.3 2.44 0z" />
  <path d="M3 11c0 .84.63 1.81 1.4 2.15l6.79 3.02a2 2 0 0 0 1.62 0l6.79-3.02c.77-.34 1.4-1.31 1.4-2.15" />
  <path d="M3 16a2.36 2.36 0 0 0 1.4 2.15l6.79 3.02a2 2 0 0 0 1.62 0l6.79-3.02A2.36 2.36 0 0 0 21 16" />
</svg>
